X:1
T:Southwell (Irons), CM
T:Southwell (Irons), CM
T:Herbert Stephen Irons, 1861
T:Public Domain Courtesy of the Cyber Hymnal™
C:Herbert Stephen Irons, 1861
Z:Public Domain
Z:Courtesy of the Cyber Hymnal™
%%score ( 1 2 ) ( 3 4 )
L:1/8
Q:1/4=112
M:4/4
K:E
V:1 treble 
V:2 treble 
V:3 bass 
V:4 bass 
V:1
 [B,E]2 | [EG]2 [EG]2 [DB]2 E2 | [CE]2 c2 [EB]2 B2 | [Ee]2 G2 [CF]2 [CF]2 | [DF]6 [FB]2 | %5
 [GB]2 (cB) A2 [FA]2 | A2 (BA) [EG]2 E2 | [CE]2 [FA]2 [EG]2 [DF]2 | E6 |] %9
V:2
 x2 | x6 (ED) | x2 (CD) x (GF) x | x2 (ED) x4 | x8 | x2 G2 (G^E) x2 | (FE) D2 x (E=D) x | x8 | %8
 E6 |] %9
V:3
 [E,G,]2 | [E,B,]2 [C,C]2 [B,,F,]2 [G,,B,]2 | [A,,A,]2 (E,F,) [E,G,]2 B,2 | %3
 [C,C]2 (CB,) [F,B,]2 [F,^A,]2 | [B,,B,]6 D2 | [G,D]2 [^E,C]2 [F,C]2 C2 | %6
 [D,B,]2 [B,,B,]2 [E,B,]2 [G,,B,]2 | [A,,C]2 [F,,C]2 [B,,B,]2 (B,A,) | [E,,E,G,]6 |] %9
V:4
 x2 | x8 | x2 A,,2 x (E,D,) x | x2 E,2 x4 | x6 (B,A,) | x6 (F,=E,) | x8 | x6 B,,2 | x6 |] %9

